X: 30590
T: One For Grandad O'Dowd
R: reel
M: 4/4
K: Gmajor
BA|:G3A Bgfg|edcB A2GA|B2D2 EDEG|BAAG A2BA|
G(gg)f edcB|(3(cde) dB A2GA|B2AG ED (3(DEG)|1 A4 BAGF:|2 A4 BA (3(GAB)||
c2de dG2G|g2fg edcB|c~E3 FDGA|BD (3(GAB) c2Bc|
dg (3(bag) (3a(ff) (ga)|gce(d d)gGg|fgdg ed (3(BAG)|1 A4 BA (3(GAB):|2 A4 BAGF||

